X: 120873
T: Like a Pinch
S: "First Collection of Traditional Irish Music" (M.Mulvihill)
Z: B.Black
L: 1/8
M: 4/4
R: reel
K: D
fage d3 B|AD (3FED EFGB|AGAB c3 d|edcd efge|
fage d3 B|AD (3FED EFGB|AGAB c3 d|edcd efge||
f2 df afdf|f2 df efge|f2 df afdf|edcd efge|
f2 df afdf|f2 df efge|f2 df dfdf|edcd efge||
